public/assets/icons/icons8-logotipo-de-java-coffee-cup.svg

<svg xmlns="http://www.w3.org/2000/svg"  viewBox="0 0 50 50" width="50px" height="50px"><path d="M 28.1875 -0.00390625 C 30.9375 6.359375 18.320313 10.289063 17.152344 15.59375 C 16.074219 20.460938 24.640625 26.121094 24.644531 26.121094 C 23.34375 24.105469 22.402344 22.441406 21.097656 19.304688 C 18.890625 14 34.53125 9.203125 28.1875 -0.00390625 Z M 36.550781 8.8125 C 36.550781 8.8125 25.503906 9.511719 24.941406 16.582031 C 24.691406 19.730469 27.84375 21.410156 27.9375 23.703125 C 28.007813 25.570313 26.050781 27.128906 26.050781 27.128906 C 26.050781 27.128906 29.601563 26.460938 30.714844 23.605469 C 31.945313 20.4375 28.328125 18.273438 28.691406 15.738281 C 29.042969 13.3125 36.550781 8.8125 36.550781 8.8125 Z M 39.230469 25.144531 C 38.074219 25.09375 36.789063 25.476563 35.625 26.3125 C 37.90625 25.824219 39.835938 27.21875 39.835938 28.828125 C 39.835938 32.453125 34.597656 35.878906 34.597656 35.878906 C 34.597656 35.878906 42.707031 34.953125 42.707031 29 C 42.707031 26.539063 41.152344 25.234375 39.230469 25.144531 Z M 19.183594 25.152344 C 19.183594 25.152344 9.0625 25.015625 9.0625 27.878906 C 9.0625 30.871094 22.316406 31.082031 31.78125 29.238281 C 31.78125 29.238281 34.308594 27.507813 34.980469 26.863281 C 28.777344 28.128906 14.621094 28.296875 14.621094 27.203125 C 14.621094 26.191406 19.183594 25.152344 19.183594 25.152344 Z M 16.738281 30.722656 C 15.1875 30.722656 12.871094 31.921875 12.871094 33.078125 C 12.871094 35.402344 24.5625 37.195313 33.21875 33.796875 L 30.222656 31.960938 C 24.355469 33.839844 13.539063 33.238281 16.738281 30.722656 Z M 18.179688 35.921875 C 16.050781 35.921875 14.671875 37.234375 14.671875 38.203125 C 14.671875 41.1875 27.378906 41.488281 32.414063 38.453125 L 29.214844 36.417969 C 25.453125 38.007813 16.007813 38.222656 18.179688 35.921875 Z M 11.089844 38.625 C 7.621094 38.554688 5.367188 40.113281 5.367188 41.40625 C 5.363281 48.28125 40.890625 47.949219 40.890625 40.921875 C 40.890625 39.757813 39.515625 39.203125 39.019531 38.9375 C 41.921875 45.65625 9.96875 45.136719 9.96875 41.171875 C 9.96875 40.269531 12.3125 39.382813 14.492188 39.808594 L 12.644531 38.757813 C 12.101563 38.675781 11.582031 38.632813 11.089844 38.625 Z M 44.636719 43.25 C 39.234375 48.367188 25.546875 50.234375 11.78125 47.074219 C 25.542969 52.703125 44.566406 49.535156 44.636719 43.25 Z"/></svg>

<svg xmlns="http://www.w3.org/2000/svg" xmlns:xlink="http://www.w3.org/1999/xlink" viewBox="0,0,256,256" width="50px" height="50px" fill-rule="nonzero"><g fill="#ffffff" fill-rule="nonzero" stroke="none" stroke-width="1" stroke-linecap="butt" stroke-linejoin="miter" stroke-miterlimit="10" stroke-dasharray="" stroke-dashoffset="0" font-family="none" font-weight="none" font-size="none" text-anchor="none" style="mix-blend-mode: normal"><g transform="scale(5.12,5.12)"><path d="M28.1875,0c2.75,6.36328 -9.85937,10.29297 -11.03125,15.59375c-1.07422,4.87109 7.49219,10.53125 7.5,10.53125c-1.30078,-2.01562 -2.25781,-3.67578 -3.5625,-6.8125c-2.20703,-5.30469 13.44141,-10.10547 7.09375,-19.3125zM36.5625,8.8125c0,0 -11.0625,0.71094 -11.625,7.78125c-0.25,3.14844 2.91016,4.80469 3,7.09375c0.07422,1.87109 -1.875,3.4375 -1.875,3.4375c0,0 3.54688,-0.67578 4.65625,-3.53125c1.23047,-3.16797 -2.39844,-5.30859 -2.03125,-7.84375c0.35156,-2.42578 7.875,-6.9375 7.875,-6.9375zM19.1875,25.15625c0,0 -10.125,-0.14453 -10.125,2.71875c0,2.99219 13.25391,3.21484 22.71875,1.375c0,0 2.51563,-1.73047 3.1875,-2.375c-6.20312,1.26563 -20.34375,1.40625 -20.34375,0.3125c0,-1.00781 4.5625,-2.03125 4.5625,-2.03125zM38.65625,25.15625c-0.99219,0.07813 -2.0625,0.46094 -3.03125,1.15625c2.28125,-0.49219 4.21875,0.92188 4.21875,2.53125c0,3.625 -5.25,7.03125 -5.25,7.03125c0,0 8.125,-0.92187 8.125,-6.875c0,-2.70312 -1.87891,-4.01562 -4.0625,-3.84375zM16.75,30.71875c-1.55469,0 -3.875,1.21875 -3.875,2.375c0,2.32422 11.6875,4.11328 20.34375,0.71875l-3,-1.84375c-5.86719,1.87891 -16.67187,1.26563 -13.46875,-1.25zM18.1875,35.9375c-2.12891,0 -3.53125,1.28516 -3.53125,2.25c0,2.98438 12.71484,3.28516 17.75,0.25l-3.1875,-2.03125c-3.76172,1.58984 -13.20312,1.83203 -11.03125,-0.46875zM11.09375,38.625c-3.46875,-0.07031 -5.71875,1.48828 -5.71875,2.78125c0,6.875 35.5,6.55859 35.5,-0.46875c0,-1.16797 -1.34766,-1.73437 -1.84375,-2c2.90234,6.71875 -29.0625,6.18359 -29.0625,2.21875c0,-0.90234 2.35156,-1.76562 4.53125,-1.34375l-1.84375,-1.0625c-0.54297,-0.08203 -1.06641,-0.11328 -1.5625,-0.125zM44.625,43.25c-5.39844,5.11719 -19.07812,6.97266 -32.84375,3.8125c13.76172,5.63281 32.77734,2.47266 32.84375,-3.8125z"></path></g></g></svg>
